modules/feathericon/icons/loop.svg

<?xml version="1.0" encoding="UTF-8"?>
<svg width="12px" height="12px" viewBox="0 0 12 12" version="1.1" xmlns="http://www.w3.org/2000/svg" xmlns:xlink="http://www.w3.org/1999/xlink">
    <!-- Generator: sketchtool 48.1 (47250) - http://www.bohemiancoding.com/sketch -->
    <title>loop</title>
    <desc>Created with sketchtool.</desc>
    <defs></defs>
    <g id="media-player" stroke="none" stroke-width="1" fill="none" fill-rule="evenodd">
        <g id="loop" fill="#000000">
            <path d="M2.70956666,8.29043345 C3.31753833,9.10333701 4.35988159,10 6.00000017,10 C9.00000017,10 10.0000002,7 10.0000002,7 L12.0000002,7 C12.0000002,7 11.0000002,12 6.00000017,12 C3.64466338,12 2.17694441,10.8904777 1.28324743,9.71675262 L-1.77635684e-15,11 L1.70652184e-07,7 L4.00000017,7 L2.70956666,8.29043345 Z M9.29043351,3.70956655 C8.68246184,2.89666299 7.64011858,2 6,2 C3,2 2,5 2,5 L-1.77635684e-15,5 C-1.77635684e-15,5 1,-2.62012634e-14 6,-2.62012634e-14 C8.35533679,-2.70894418e-14 9.82305576,1.10952228 10.7167527,2.28324738 L12.0000002,1 L12,5 L8,5 L9.29043351,3.70956655 Z" id="Shape"></path>
        </g>
    </g>
</svg>

<svg width="12" height="12" viewBox="0 0 12 12" xmlns="http://www.w3.org/2000/svg"><path d="M2.71 8.29C3.318 9.103 4.36 10 6 10c3 0 4-3 4-3h2s-1 5-6 5c-2.355 0-3.823-1.11-4.717-2.283L0 11V7h4L2.71 8.29zm6.58-4.58C8.682 2.897 7.64 2 6 2 3 2 2 5 2 5H0s1-5 6-5c2.355 0 3.823 1.11 4.717 2.283L12 1v4H8l1.29-1.29z" fill="#000" fill-rule="evenodd"/></svg>
